X:1
T:Bill's French Tune
C:Bill Quern
M:C
L:1/4
K:Dm
"Dm" A2 d2 | c =B A2 | FA "Am"EA| "Dm" DEFG|
"Dm" A2 d2 | c =B A2 | fd "A7"e ^c|1"Bb" d2 d2 :|2"Dm"d2 d d/e/||
|:"Dm" fd "A/C#" e^c| "Bb" dc "F" BA | "Dm"fd "A/C#"e^c | "Dm"d "A"a2 a|
"Dm" fd "A/C#" e^c| "Bb" dc "F" BA |"Dm"FA "A7"EA |1 "Bb" D3 d/e/:|2"Dm" D4|]
